X: 16
T: The Ivy Leaf
R: reel
M: 4/4
L: 1/8
K: Amix
"A"A3e cAec|"A"AecA "G"dBGB|"A"A2ed cdec|"Em"BGEF "G"GABG|
"A"Ae e2cee2|"A"ae e2 "G"dBGB|"A"A2ed cdec|"Em"BGEF "G"GABd||
"A"eaag edBd|"G"egge dBGB|"A"eaag edBA|"Em"BGEF "G"GABd|
"A"eaag edBd|"G"egge dBGB|"Am"A3B =cBcd|"A"eaag "G"edBG||
